_inc/systems/logos/ti99.svg

<svg xmlns="http://www.w3.org/2000/svg" viewBox="0 0 3839 1168.2"><path d="M196.3 800.7h39.4v123.8h.8c18.5-30.2 49.9-43 85.7-43 56.7 0 97.7 31.8 97.7 94.9V1091h-39.4V978.4c0-45-26.9-69.6-64.8-69.6-37.4 0-80 22.9-80 86.9v95.3h-39.4zm409.3 297.9c-82.1 0-126.2-39.4-126.2-108.6 0-65.6 41.8-108.6 126.2-108.6 82.1 0 126.2 39.4 126.2 108.6s-44.1 108.6-126.2 108.6m-84.5-108.5c0 45.9 29.4 81.3 84.5 81.3s84.5-35.4 84.5-81.3-29.4-81.3-84.5-81.3-84.5 35.4-84.5 81.3M791.3 935c0-15.3-.8-29.8-1.6-45.9h37c.8 10.1 1.6 21.7 1.6 35.8h.8c22.9-31 51.9-43.4 84.9-43.4 33.8 0 61.9 16.5 73.6 50.7 14.5-27.8 45.9-50.7 83.3-50.7 57.5 0 92.9 28.2 92.9 93.7V1091h-39.4V990c0-49.1-14.1-81.3-57.1-81.3-34.6 0-70 23.7-70 90.1v92.1h-39.4V987.6c0-54.3-18.5-78.8-54.7-78.8-34.6 0-72.4 24.9-72.4 84.5v97.7h-39.4zm657.5 65.5h-189c4 41.4 30.6 70.8 74.8 70.8 28.6 0 58.7-12.1 67.6-41h41.8c-8 53.9-62.7 68.4-107.4 68.4-74 0-116.3-40.6-116.3-104.6 0-73.6 44.2-112.6 117.5-112.6 71.6 0 111 38.6 111 107zm-41.9-27.3c-.8-46.7-35.4-64.4-70-64.4-40.6 0-69.6 19.7-75.6 64.4zm455.6 52.7c-4 51.1-56.3 72.8-107.8 72.8-75.2 0-115-43-115-108.2 0-68 45.9-109 118.7-109 48.7 0 95.7 19.3 102.6 72h-41.8c-3.6-29.4-27.4-44.6-60.4-44.6-42.6 0-77.2 27.8-77.2 81.7 0 43 25.3 80.9 75.2 80.9 37 0 61.9-17.3 64-45.5zm171.2 72.7c-82.1 0-126.2-39.4-126.2-108.6 0-65.6 41.8-108.6 126.2-108.6 82.1 0 126.2 39.4 126.2 108.6s-44.1 108.6-126.2 108.6m-84.4-108.5c0 45.9 29.4 81.3 84.5 81.3s84.5-35.4 84.5-81.3-29.4-81.3-84.5-81.3-84.5 35.4-84.5 81.3m270.2-55.1c0-15.3-.8-29.8-1.6-45.9h37c.8 10.1 1.6 21.7 1.6 35.8h.8c22.9-31 51.9-43.4 84.9-43.4 33.8 0 61.9 16.5 73.6 50.7 14.5-27.8 45.9-50.7 83.3-50.7 57.5 0 92.9 28.2 92.9 93.7V1091h-39.4V990c0-49.1-14.1-81.3-57.1-81.3-34.6 0-70 23.7-70 90.1v92.1H2386V987.6c0-54.3-18.5-78.8-54.7-78.8-34.6 0-72.4 24.9-72.4 84.5v97.7h-39.4zm443.9 0c0-15.3-.8-29.8-1.6-45.9h39.4c.8 7.6 1.6 16.9 1.6 28.6 20.5-23.3 52.7-36.2 88.5-36.2 60.3 0 112.6 43 112.6 108.6s-52.3 108.6-112.6 108.6c-32.2 0-63.6-7.6-88.5-34.2v103.8h-39.4zm118.9 136.2c47.1 0 79.6-30.2 79.6-81.3s-32.6-81.3-79.6-81.3c-46.7 0-79.6 30.2-79.6 81.3.1 51.2 33 81.3 79.6 81.3m404.6-26c0 15.3.8 29.8 1.6 45.9h-37c-.8-10.1-1.6-21.7-1.6-35.8h-.8c-22.9 31-51.9 43.4-88.1 43.4-56.7 0-97.8-31.8-97.8-94.9V889.1h39.4v112.6c0 45 26.9 69.6 64.8 69.6 37.4 0 80.1-22.9 80.1-86.9v-95.3h39.4zm101.2-193.1 39.4-16.5v53.5h59.5v27.4h-59.5v116.2c0 21.7 6 33.4 30.6 33.4 7.2 0 18.9-.8 30.2-2.4v27.4c-12.9 1.6-25.7 2.4-37.8 2.4-39.8 0-62.4-12.9-62.4-57.9V916.5h-52.7v-27.4h52.7zm362.4 148.4h-189c4 41.4 30.6 70.8 74.8 70.8 28.6 0 58.7-12.1 67.6-41h41.8c-8 53.9-62.7 68.4-107.4 68.4-74 0-116.3-40.6-116.3-104.6 0-73.6 44.2-112.6 117.5-112.6 71.6 0 111 38.6 111 107zm-41.9-27.3c-.8-46.7-35.4-64.4-70-64.4-40.6 0-69.6 19.7-75.6 64.4zm98.6-38.2c0-15.3-.8-29.8-1.6-45.9h37c.8 12.1 1.6 26.6 1.6 40.2h.8c18.1-32.6 35.8-43 80.8-43h13.3v35.4c-6-2-11.7-2.4-18.9-2.4-47.5 0-73.6 33.4-73.6 74v97.7h-39.4zM628.7 6.1h198.9v688.6H628.7zm-37.3 0H0v183h196.3v505.6h198.9V189.1h196.2zm1405-6.1c-155 0-280.6 86.5-280.6 243.2 0 173.5 128 235.9 249.5 235.9 37.9 0 91.9-20 127.4-47.5 17.2 167.1-171.1 176.4-189.1 77.6h-173.5c28.9 155.6 164.9 198.6 271.2 198.3 141-.4 275.6-112.7 275.6-385 0-226-125.5-322.5-280.5-322.5m-6.7 343.3c-58.4 0-105.8-47.3-105.8-105.8s47.3-105.8 105.8-105.8 105.8 47.4 105.8 105.8c0 58.5-47.4 105.8-105.8 105.8M1383.8 0c-155 0-280.6 86.5-280.6 243.2 0 173.5 128 235.9 249.5 235.9 37.9 0 91.9-20 127.4-47.5C1497.3 598.7 1309 608 1291 509.2h-173.6c28.9 155.6 164.9 198.6 271.2 198.3 141-.4 275.6-112.7 275.6-385 0-226-125.5-322.5-280.4-322.5m-6.8 343.3c-58.4 0-105.8-47.3-105.8-105.8s47.3-105.8 105.8-105.8 105.8 47.4 105.8 105.8c.1 58.5-47.3 105.8-105.8 105.8m-490.7-79.7h158.2v130.3H886.3zm2164.9 443.8h-199.4a18.2 18.2 0 0 1-18.2-18.2V554.6h-278.2a18.2 18.2 0 0 1-18.2-18.2V385.7c0-4.4 1.6-8.6 4.5-11.9l319-367.5c3.5-4 8.5-6.3 13.8-6.3h176.8c10.1 0 18.2 8.2 18.2 18.2V376h50.1c10.1 0 18.2 8.2 18.2 18.2v142.1c0 10.1-8.2 18.2-18.2 18.2h-50.1v134.6c-.1 10.1-8.3 18.3-18.3 18.3M2869.9 671h163V536.4c0-10.1 8.2-18.2 18.2-18.2h50.1V412.5h-50.1a18.2 18.2 0 0 1-18.2-18.2V36.4h-150.3l-309.1 356.1v125.6h278.2c10.1 0 18.2 8.2 18.2 18.2z" class="st0" style="fill:#fff"/><path d="M2851.7 412.5H2664c-7.1 0-13.6-4.2-16.6-10.7s-1.9-14.1 2.8-19.5L2838 166.1c5-5.7 13-7.8 20.1-5.1a18.3 18.3 0 0 1 11.8 17.1v216.2c0 10-8.1 18.2-18.2 18.2M2704 376.1h129.5V226.9zm1116.8 331.3h-138.1c-7.8 0-14.7-5-17.2-12.3l-48.2-140.5h-214.6l-48.1 140.5c-2.5 7.4-9.4 12.3-17.2 12.3H3199c-5.9 0-11.4-2.8-14.8-7.6a18.3 18.3 0 0 1-2.4-16.5l230-671c2.5-7.4 9.4-12.3 17.2-12.3h161.9c7.8 0 14.7 5 17.2 12.3l229.9 671c1.9 5.6 1 11.7-2.4 16.5s-8.9 7.6-14.8 7.6M3695.7 671h99.6L3577.9 36.4H3442L3224.5 671h99.7l48.1-140.5c2.5-7.4 9.4-12.3 17.2-12.3h240.7c7.8 0 14.7 5 17.2 12.3zm-103.9-228.5H3428c-5.9 0-11.4-2.8-14.8-7.6a18.3 18.3 0 0 1-2.4-16.5l82-239.1c2.5-7.4 9.5-12.3 17.2-12.3 7.8 0 14.7 5 17.2 12.3l81.9 239.1c1.9 5.6 1 11.7-2.4 16.5-3.5 4.8-9 7.6-14.9 7.6m-138.3-36.4h112.8l-56.4-164.6zM2553.4 36.4l-312.9 671h52l312.8-671z" class="st0" style="fill:#fff"/></svg>

<?xml version="1.0" encoding="utf-8"?>
<svg version="1.1" viewBox="0 0 3839 1168.2" xmlns="http://www.w3.org/2000/svg">
  <path class="st0" d="M 196.3 800.7 L 235.7 800.7 L 235.7 924.5 L 236.5 924.5 C 255 894.3 286.4 881.5 322.2 881.5 C 378.9 881.5 419.9 913.3 419.9 976.4 L 419.9 1091 L 380.5 1091 L 380.5 978.4 C 380.5 933.4 353.6 908.8 315.7 908.8 C 278.3 908.8 235.7 931.7 235.7 995.7 L 235.7 1091 L 196.3 1091 L 196.3 800.7 L 196.3 800.7 Z" style="fill: rgb(255, 255, 255);"/>
  <path class="st0" d="M 605.6 1098.6 C 523.5 1098.6 479.4 1059.2 479.4 990 C 479.4 924.4 521.2 881.4 605.6 881.4 C 687.7 881.4 731.8 920.8 731.8 990 C 731.8 1059.2 687.7 1098.6 605.6 1098.6 Z M 521.1 990.1 C 521.1 1036 550.5 1071.4 605.6 1071.4 C 660.7 1071.4 690.1 1036 690.1 990.1 C 690.1 944.2 660.7 908.8 605.6 908.8 C 550.5 908.8 521.1 944.2 521.1 990.1 Z" style="fill: rgb(255, 255, 255);"/>
  <path class="st0" d="M 791.3 935 C 791.3 919.7 790.5 905.2 789.7 889.1 L 826.7 889.1 C 827.5 899.2 828.3 910.8 828.3 924.9 L 829.1 924.9 C 852 893.9 881 881.5 914 881.5 C 947.8 881.5 975.9 898 987.6 932.2 C 1002.1 904.4 1033.5 881.5 1070.9 881.5 C 1128.4 881.5 1163.8 909.7 1163.8 975.2 L 1163.8 1091 L 1124.4 1091 L 1124.4 990 C 1124.4 940.9 1110.3 908.7 1067.3 908.7 C 1032.7 908.7 997.3 932.4 997.3 998.8 L 997.3 1090.9 L 957.9 1090.9 L 957.9 987.6 C 957.9 933.3 939.4 908.8 903.2 908.8 C 868.6 908.8 830.8 933.7 830.8 993.3 L 830.8 1091 L 791.4 1091 L 791.3 935 L 791.3 935 Z" style="fill: rgb(255, 255, 255);"/>
  <path class="st0" d="M 1448.8 1000.5 L 1259.8 1000.5 C 1263.8 1041.9 1290.4 1071.3 1334.6 1071.3 C 1363.2 1071.3 1393.3 1059.2 1402.2 1030.3 L 1444 1030.3 C 1436 1084.2 1381.3 1098.7 1336.6 1098.7 C 1262.6 1098.7 1220.3 1058.1 1220.3 994.1 C 1220.3 920.5 1264.5 881.5 1337.8 881.5 C 1409.4 881.5 1448.8 920.1 1448.8 988.5 L 1448.8 1000.5 L 1448.8 1000.5 Z M 1406.9 973.2 C 1406.1 926.5 1371.5 908.8 1336.9 908.8 C 1296.3 908.8 1267.3 928.5 1261.3 973.2 L 1406.9 973.2 Z" style="fill: rgb(255, 255, 255);"/>
  <path class="st0" d="M 1862.5 1025.9 C 1858.5 1077 1806.2 1098.7 1754.7 1098.7 C 1679.5 1098.7 1639.7 1055.7 1639.7 990.5 C 1639.7 922.5 1685.6 881.5 1758.4 881.5 C 1807.1 881.5 1854.1 900.8 1861 953.5 L 1819.2 953.5 C 1815.6 924.1 1791.8 908.9 1758.8 908.9 C 1716.2 908.9 1681.6 936.7 1681.6 990.6 C 1681.6 1033.6 1706.9 1071.5 1756.8 1071.5 C 1793.8 1071.5 1818.7 1054.2 1820.8 1026 L 1862.5 1025.9 L 1862.5 1025.9 Z" style="fill: rgb(255, 255, 255);"/>
  <path class="st0" d="M 2033.7 1098.6 C 1951.6 1098.6 1907.5 1059.2 1907.5 990 C 1907.5 924.4 1949.3 881.4 2033.7 881.4 C 2115.8 881.4 2159.9 920.8 2159.9 990 C 2159.9 1059.2 2115.8 1098.6 2033.7 1098.6 Z M 1949.3 990.1 C 1949.3 1036 1978.7 1071.4 2033.8 1071.4 C 2088.9 1071.4 2118.3 1036 2118.3 990.1 C 2118.3 944.2 2088.9 908.8 2033.8 908.8 C 1978.7 908.8 1949.3 944.2 1949.3 990.1 Z" style="fill: rgb(255, 255, 255);"/>
  <path class="st0" d="M 2219.5 935 C 2219.5 919.7 2218.7 905.2 2217.9 889.1 L 2254.9 889.1 C 2255.7 899.2 2256.5 910.8 2256.5 924.9 L 2257.3 924.9 C 2280.2 893.9 2309.2 881.5 2342.2 881.5 C 2376 881.5 2404.1 898 2415.8 932.2 C 2430.3 904.4 2461.7 881.5 2499.1 881.5 C 2556.6 881.5 2592 909.7 2592 975.2 L 2592 1091 L 2552.6 1091 L 2552.6 990 C 2552.6 940.9 2538.5 908.7 2495.5 908.7 C 2460.9 908.7 2425.5 932.4 2425.5 998.8 L 2425.5 1090.9 L 2386 1090.9 L 2386 987.6 C 2386 933.3 2367.5 908.8 2331.3 908.8 C 2296.7 908.8 2258.9 933.7 2258.9 993.3 L 2258.9 1091 L 2219.5 1091 L 2219.5 935 L 2219.5 935 Z" style="fill: rgb(255, 255, 255);"/>
  <path class="st0" d="M 2663.4 935 C 2663.4 919.7 2662.6 905.2 2661.8 889.1 L 2701.2 889.1 C 2702 896.7 2702.8 906 2702.8 917.7 C 2723.3 894.4 2755.5 881.5 2791.3 881.5 C 2851.6 881.5 2903.9 924.5 2903.9 990.1 C 2903.9 1055.7 2851.6 1098.7 2791.3 1098.7 C 2759.1 1098.7 2727.7 1091.1 2702.8 1064.5 L 2702.8 1168.3 L 2663.4 1168.3 L 2663.4 935 Z M 2782.3 1071.2 C 2829.4 1071.2 2861.9 1041 2861.9 989.9 C 2861.9 938.8 2829.3 908.6 2782.3 908.6 C 2735.6 908.6 2702.7 938.8 2702.7 989.9 C 2702.8 1041.1 2735.7 1071.2 2782.3 1071.2 Z" style="fill: rgb(255, 255, 255);"/>
  <path class="st0" d="M 3186.9 1045.2 C 3186.9 1060.5 3187.7 1075 3188.5 1091.1 L 3151.5 1091.1 C 3150.7 1081 3149.9 1069.4 3149.9 1055.3 L 3149.1 1055.3 C 3126.2 1086.3 3097.2 1098.7 3061 1098.7 C 3004.3 1098.7 2963.2 1066.9 2963.2 1003.8 L 2963.2 889.1 L 3002.6 889.1 L 3002.6 1001.7 C 3002.6 1046.7 3029.5 1071.3 3067.4 1071.3 C 3104.8 1071.3 3147.5 1048.4 3147.5 984.4 L 3147.5 889.1 L 3186.9 889.1 L 3186.9 1045.2 L 3186.9 1045.2 Z" style="fill: rgb(255, 255, 255);"/>
  <path class="st0" d="M 3288.1 852.1 L 3327.5 835.6 L 3327.5 889.1 L 3387 889.1 L 3387 916.5 L 3327.5 916.5 L 3327.5 1032.7 C 3327.5 1054.4 3333.5 1066.1 3358.1 1066.1 C 3365.3 1066.1 3377 1065.3 3388.3 1063.7 L 3388.3 1091.1 C 3375.4 1092.7 3362.6 1093.5 3350.5 1093.5 C 3310.7 1093.5 3288.1 1080.6 3288.1 1035.6 L 3288.1 916.5 L 3235.4 916.5 L 3235.4 889.1 L 3288.1 889.1 L 3288.1 852.1 Z" style="fill: rgb(255, 255, 255);"/>
  <path class="st0" d="M 3650.5 1000.5 L 3461.5 1000.5 C 3465.5 1041.9 3492.1 1071.3 3536.3 1071.3 C 3564.9 1071.3 3595 1059.2 3603.9 1030.3 L 3645.7 1030.3 C 3637.7 1084.2 3583 1098.7 3538.3 1098.7 C 3464.3 1098.7 3422 1058.1 3422 994.1 C 3422 920.5 3466.2 881.5 3539.5 881.5 C 3611.1 881.5 3650.5 920.1 3650.5 988.5 L 3650.5 1000.5 L 3650.5 1000.5 Z M 3608.6 973.2 C 3607.8 926.5 3573.2 908.8 3538.6 908.8 C 3498 908.8 3469 928.5 3463 973.2 L 3608.6 973.2 Z" style="fill: rgb(255, 255, 255);"/>
  <path class="st0" d="M 3707.2 935 C 3707.2 919.7 3706.4 905.2 3705.6 889.1 L 3742.6 889.1 C 3743.4 901.2 3744.2 915.7 3744.2 929.3 L 3745 929.3 C 3763.1 896.7 3780.8 886.3 3825.8 886.3 L 3839.1 886.3 L 3839.1 921.7 C 3833.1 919.7 3827.4 919.3 3820.2 919.3 C 3772.7 919.3 3746.6 952.7 3746.6 993.3 L 3746.6 1091 L 3707.2 1091 L 3707.2 935 L 3707.2 935 Z" style="fill: rgb(255, 255, 255);"/>
  <rect x="628.7" y="6.1" class="st0" width="198.9" height="688.6" style="fill: rgb(255, 255, 255);"/>
  <polygon class="st0" points="591.4 6.1 0 6.1 0 189.1 196.3 189.1 196.3 694.7 395.2 694.7 395.2 189.1 591.4 189.1" style="fill: rgb(255, 255, 255);"/>
  <path class="st0" d="M 1996.4 0 C 1841.4 0 1715.8 86.5 1715.8 243.2 C 1715.8 416.7 1843.8 479.1 1965.3 479.1 C 2003.2 479.1 2057.2 459.1 2092.7 431.6 C 2109.9 598.7 1921.6 608 1903.6 509.2 L 1730.1 509.2 C 1759 664.8 1895 707.8 2001.3 707.5 C 2142.3 707.1 2276.9 594.8 2276.9 322.5 C 2276.9 96.5 2151.4 0 1996.4 0 Z M 1989.7 343.3 C 1931.3 343.3 1883.9 296 1883.9 237.5 C 1883.9 179 1931.2 131.7 1989.7 131.7 C 2048.2 131.7 2095.5 179.1 2095.5 237.5 C 2095.5 296 2048.1 343.3 1989.7 343.3 Z" style="fill: rgb(255, 255, 255);"/>
  <path class="st0" d="M 1383.8 0 C 1228.8 0 1103.2 86.5 1103.2 243.2 C 1103.2 416.7 1231.2 479.1 1352.7 479.1 C 1390.6 479.1 1444.6 459.1 1480.1 431.6 C 1497.3 598.7 1309 608 1291 509.2 L 1117.4 509.2 C 1146.3 664.8 1282.3 707.8 1388.6 707.5 C 1529.6 707.1 1664.2 594.8 1664.2 322.5 C 1664.2 96.5 1538.7 0 1383.8 0 Z M 1377 343.3 C 1318.6 343.3 1271.2 296 1271.2 237.5 C 1271.2 179 1318.5 131.7 1377 131.7 C 1435.5 131.7 1482.8 179.1 1482.8 237.5 C 1482.9 296 1435.5 343.3 1377 343.3 Z" style="fill: rgb(255, 255, 255);"/>
  <rect x="886.3" y="263.6" class="st0" width="158.2" height="130.3" style="fill: rgb(255, 255, 255);"/>
  <path class="st0" d="M 3051.2 707.4 L 2851.8 707.4 C 2841.7 707.4 2833.6 699.2 2833.6 689.2 L 2833.6 554.6 L 2555.4 554.6 C 2545.3 554.6 2537.2 546.4 2537.2 536.4 L 2537.2 385.7 C 2537.2 381.3 2538.8 377.1 2541.7 373.8 L 2860.7 6.3 C 2864.2 2.3 2869.2 0 2874.5 0 L 3051.3 0 C 3061.4 0 3069.5 8.2 3069.5 18.2 L 3069.5 376 L 3119.6 376 C 3129.7 376 3137.8 384.2 3137.8 394.2 L 3137.8 536.3 C 3137.8 546.4 3129.6 554.5 3119.6 554.5 L 3069.5 554.5 L 3069.5 689.1 C 3069.4 699.2 3061.2 707.4 3051.2 707.4 Z M 2869.9 671 L 3032.9 671 L 3032.9 536.4 C 3032.9 526.3 3041.1 518.2 3051.1 518.2 L 3101.2 518.2 L 3101.2 412.5 L 3051.1 412.5 C 3041 412.5 3032.9 404.3 3032.9 394.3 L 3032.9 36.4 L 2882.6 36.4 L 2573.5 392.5 L 2573.5 518.1 L 2851.7 518.1 C 2861.8 518.1 2869.9 526.3 2869.9 536.3 L 2869.9 671 Z" style="fill: rgb(255, 255, 255);"/>
  <path class="st0" d="M 2851.7 412.5 L 2664 412.5 C 2656.9 412.5 2650.4 408.3 2647.4 401.8 C 2644.4 395.3 2645.5 387.7 2650.2 382.3 L 2838 166.1 C 2843 160.4 2851 158.3 2858.1 161 C 2865.2 163.7 2869.9 170.5 2869.9 178.1 L 2869.9 394.3 C 2869.9 404.3 2861.8 412.5 2851.7 412.5 Z M 2704 376.1 L 2833.5 376.1 L 2833.5 226.9 L 2704 376.1 Z" style="fill: rgb(255, 255, 255);"/>
  <path class="st0" d="M 3820.8 707.4 L 3682.7 707.4 C 3674.9 707.4 3668 702.4 3665.5 695.1 L 3617.3 554.6 L 3402.7 554.6 L 3354.6 695.1 C 3352.1 702.5 3345.2 707.4 3337.4 707.4 L 3199 707.4 C 3193.1 707.4 3187.6 704.6 3184.2 699.8 C 3180.8 695 3179.9 688.9 3181.8 683.3 L 3411.8 12.3 C 3414.3 4.9 3421.2 0 3429 0 L 3590.9 0 C 3598.7 0 3605.6 5 3608.1 12.3 L 3838 683.3 C 3839.9 688.9 3839 695 3835.6 699.8 C 3832.2 704.6 3826.7 707.4 3820.8 707.4 Z M 3695.7 671 L 3795.3 671 L 3577.9 36.4 L 3442 36.4 L 3224.5 671 L 3324.2 671 L 3372.3 530.5 C 3374.8 523.1 3381.7 518.2 3389.5 518.2 L 3630.2 518.2 C 3638 518.2 3644.9 523.2 3647.4 530.5 L 3695.7 671 Z M 3591.8 442.5 L 3428 442.5 C 3422.1 442.5 3416.6 439.7 3413.2 434.9 C 3409.8 430.1 3408.9 424 3410.8 418.4 L 3492.8 179.3 C 3495.3 171.9 3502.3 167 3510 167 L 3510 167 C 3517.8 167 3524.7 172 3527.2 179.3 L 3609.1 418.4 C 3611 424 3610.1 430.1 3606.7 434.9 C 3603.2 439.7 3597.7 442.5 3591.8 442.5 Z M 3453.5 406.1 L 3566.3 406.1 L 3509.9 241.5 L 3453.5 406.1 Z" style="fill: rgb(255, 255, 255);"/>
  <polygon class="st0" points="2553.4 36.4 2240.5 707.4 2292.5 707.4 2605.3 36.4" style="fill: rgb(255, 255, 255);"/>
</svg>
